X: 31
T:The Mug of Brown Ale
% Nottingham Music Database
S:Trad, arr Phil Rowe
M:6/8
K:G
G|"Am"EAA ABd|edB c2A|"G"BGG dGG|Bdc BAG|
"Am"EAA ABd|"Am"ede "Em"a2g|"Am"edc "Em"Bcd|"Am"ecA A2:|
f|"Em"gef g2a|"Em"gef "D7"gdc|"G"BGG dGG|Bdc BAG|
"Em"gef g2a|"D7"gef "G"g2d|"C"edc "E7"Bcd|"Am"ecA A2f|
"Em"gef g2a|"Em"gef "D7"gdc|"G"BGG dGG|Bdc BAG|
"Am"EAA ABd|"Am"ede "Em"a2g|"Am"edc "E7"Bcd|"Am"ecA A2||


